X: 353
T: Shaccabac or Blue Beard
%R: march
Z: 2014 John Chambers <jc:trillian.mit.edu>
B: Preston "Twenty four Country Dances for the Year 1799" p.157 #1
F: http://www.vwml.org/browse/browse-collections-dance-tune-books/browse-prestons1799# 2014-8-10
N: This tune really does have all isolated notes, with no beaming at all.
M: 2/4
L: 1/16
K: G
|:\
G4 d3 B | G4 d3 B | c3 d c3 B | A3 G F4 |\
G4 d3 B | G4 d3 B | c3 A G3 F | G4 z4 :|
|:\
d4 g3 f | e3 d c3 B | A3 B c3 d | B4 G4 |\
ed4 g3 f | e3 d c3 B | A3 c F3 A | G4 z4 :|
% - - - - - - - - - - - - - - - - - - - - - - - - -
%%begintext align
%% Ballance & 3 round Ladies Side same on the
%% Gentlemans lead down the middle up again and
%% Allemand with Partner
%%endtext
% - - - - - - - - - - - - - - - - - - - - - - - - -

%%sep 1 1 500
%%sep 1 1 500
